packages/icons/web/house_filled_large.svg

<svg width="24" height="24" viewBox="0 0 24 24" fill="none" xmlns="http://www.w3.org/2000/svg">
<path d="M5 20H10V13H14V20H19C19.5523 20 20 19.5523 20 19V10.5L12 4.5L4 10.5V19C4 19.5523 4.44772 20 5 20Z" fill="#212933"/>
</svg>

<svg width="24" height="24" fill="none" xmlns="http://www.w3.org/2000/svg">
    <path d="M5 20h5v-7h4v7h5a1 1 0 001-1v-8.5l-8-6-8 6V19a1 1 0 001 1z" fill="currentColor"/>
</svg>
